X:163
T:The Dingle Regatta
M:12/8
L:1/8
K:G
|:"G"d^cd e2 d BAB d2 B|"D"A3 AGA "G"B2 A G2 z|d^cd e2 d BAB d2 B|\
"D"A3 B2 A "G"G3 z2z:|
|:"D"d2 d def "G"g3 gfg|"D"a3 aga "G"b2 a gfe|\
"D"d^cd def "G"g3 g2 b|"D"a2 g f2 e def "G"g3:|
K:C
|:"G".g2 z.d2 zBdB G3|"D"A3 DEF "G"G2 B d2 z|.g2 z.d2 zBdB G3|\
"D"A3 DEF G2 B "G"G2 z:|
